X:1
T:James Gibb editions
T:Ave Maria  a 4 - Guerrero
T:#
%%score [ 1 2 3 4 ]
L:1/8
Q:1/4=96
M:2/2
K:Bb
V:1 treble nm="Soprano" snm="S"
V:2 treble nm="Alto" snm="A"
V:3 treble-8 nm="Tenor" snm="T"
V:4 bass nm="Bass" snm="B"
V:1
"^Francisco Guerrero\n(1528-99)""^Ave Maria a 4" G4 B2 B2 | A4 (G3 A | Bc B3 A G2- | G^F F2 G4) | %4
w: A- ve Ma-|ri- a, *|||
 z2 D2 (D=EFG | ABcA B3 A | B2 c2) G2 (c2- | c2 =B2 c4- | c2 _B2 G2 A2- | A2 G2) A4- | A8 | z8 | %12
w: a- ve * * *||* * Ma- ri\-|||* * a,|||
 z4 d4 | c2 B2 c4 | d4 z4 | z2 d4 c2- | c2 =B2 (c_BAG | A3 G F=E F2 | =E2 G3 F D2 | E4) D4 | %20
w: gra-|ti- a ple-|na,|Do- mi\-|* nus te\- * * *|||* cum,|
 z2 G4 G2 | (A4 G2 c2- | c2) =B2 c2 F2 | G2 (_B4 AG | AB c3 B B2 | B2) A2 B4 | B2 B2 c2 (d2- | %27
w: be- ne-|di\- * *|* cta tu, be-|ne- di\- * *||* cta tu|in mu- li- e\-|
 dc B2 A2 B2- | B2 AG ^F2 G2- | G2) ^F2 G4- | G4 z4 | B4 B2 B2 | B4 A4- | A4 c4- | c2 c2 B2 (GA | %35
w: ||* ri- bus,||et be- ne-|di- ctus|* fru\-|* ctus ven- tris *|
 Bc d2 c2) (d2- | dc c2 d2) (G2 | BAGF G4) | A8 | z8 | z8 | z8 | z2 d4 B2 | c3 B A4 | G2 G4 =E2 | %45
w: * * * * tu\-|* * * * Je\-||sus,||||fru- crus|ven- tris tu-|i, fru- ctus|
 F2 F2 (G2 B2) | A2 (G4 ^F=E) | ^F4 z4 | z4 z2 G2 | B2 B2 (A4 | F2 G3 G D2 | =E4) D2 F2 | %52
w: ven- tris tu\- *|i Je\- * *|sus.|San-|cta Ma- ri\-||* a, Re-|
 G2 F2 G4- | G4 A4- | A4 z2 A2 | B3 A (G4- | G2 ^F=E) F4- | F4 z4 | z4 z2 A2 | A2 A2 d4- | %60
w: gi- na cae\-|* li.|* O|ima- ter De\-|* * * i,||o-|ra pro no\-|
 d2 c2 B2 A2 | B2 G2 A2 c2 | c2 c2 c4 | G4 z2 G2- | G2 B4 A2 | (B3 A GABG | AG G4 ^F2) | G8- | G8 | %69
w: * bis pec- ca-|to- ri- bus, ut|cum e- le-|ctis te|* vi- de-|a\- * * * * *||mus,||
 z2 d2 c2 A2 | (BAGF) G2 c2 | A2 B2 (cBAG | A2 B3 A G2 | FD G4 ^F2) | G4 z2 G2 | G2 G2 G4 | G8- | %77
w: ut cum e-|le\- * * * ctis te|vi- de- a\- * * *|||mus, te|vi- de- a-|mus.|
 G16 |] %78
w: |
V:2
 z4 D4 | F2 F2 =E4 | D8 | C4 D2 G,2 | (G,A,B,C D4) | C4 z2 D2 | D2 (E3 C) (G2- | GF F2) G2 G,2- | %8
w: A-|ve Ma- ri-|a,|a- ve Ma-|ri\- * * * *|a, a-|ve Ma\- * ri\-|* * * a, a\-|
 G,2 B,4 A,2 | B,4 A,4- | A,8 | z2 D2 E2 (G2- | G2 F=E F3 D | F2 G2) E4 | D4 z4 | D4 E2 C2 | %16
w: * ve Ma|ri- a,||gra- ti- a||* * ple-|na,|Do- mi- nus|
 (G4 =E2 F2- | F=E/D/ E2) D4 | z2 G,2 C2 D2- | D2 (C4 =B,A,) | =B,4 z2 D2- |"^i" D2 D2 (=E4 | %22
w: te\- * *|* * * * cum,|Do- mi- nus|* te\- * *|cum, be\-|* ne- di\-|
 D4 C2 F2- | F2) =E2 F4 | z2 G2 F2 F2- | F2 F2 D2 G2 | G2 G2 (FEDC | B,CD=E F4- | F2 =E2 D2) C2 | %29
w: |* cta tu,|be- ne- di\-|* cta tu in|mu- li- e\- * * *||* * * ri-|
 D4 z2 _E2 | E2 E2 E4 | D4 G4- | G2 G2 F2 (D2- | D=EFD _EDCB, | A,G, A,2) (G,A,B,C | %35
w: bus, et|be- ne- di-|ctus fru\-|* ctus ven- tris||* * * tu\- * * *|
 D=E F2 _E2) D2 | E4 D4- | D8 | z8 | z2 G,2 G,2 ^F,2 | G,4 z4 | z2 G4 =E2 | F3 =E D4 | C4 z2 D2- | %44
w: * * * * i,|Je- sus,|||ven- tris tu-|i,|fru- ctus|ven- tris tu-|i, fru\-|
 D2 B,2 C2 C2 | D6 D2 | E4 D4- | D4 z4 | z8 | z2 G4 F2 | D2 (=E3 D D2- | D2 ^C2) D4 | %52
w: * ctus ven- tris|tu- i,|Je- sus.|||San- cta|Ma- ri\- * *|* * a,|
 z2 =C2 D2 C2 | (D2 =E2 F4) | =E4 z2 E2 | G3 F =E4 | D8 | z2 D2 D2 D2 | G6 F2 | D2 =E2 F2 D2 | %60
w: Re- gi- na|cae\- * *|li. O|ma- ter De-|i,|o- ra pro|no- bis|pec- ca- to- ri-|
 =E4 F3 E | F2 D2 =E4- | E4 z2 =E2 | =E2 E2 D4 | D8 | z4 D4 | E2 C2 D4 | B,2 D2 D2 D2 | E4 D3 D | %69
w: bus, pec- ca-|to- ri- bus,|* ut|cum e- le-|ctis|te|vi- de- a-|mus, ut cum e-|le- ctis te|
 E2 (G3 =E) ^F2 | G4 z2 G2 | F2 D2 (EDCB,) | C2 D2 B,3 C | D8 | D4 z2 D2 | E2 E2 E4 | D8- | D16 |] %78
w: vi- de\- * a-|mus, ut|cum e- le\- * * *|ctis te vi- de-|a-|mus, te|vi- de- a-|mus.||
V:3
 z8 | z8 | z8 | z4 B4- | B4 F4- | F4 G4- | G4 (G4 | d4 e4- | e4) d4- | d8 | z4 d4 | c2 B2 c4 | d8 | %13
w: |||A\-|* ve|* Ma\-|* ri\-||* a,||gra-|ti- a ple-|na,|
 z8 | z2 d4 c2- | c2 =B2 c4 | G4 z2 d2- | d2 c4 =B2 | (c4 G4) | G8- | G8 | z8 | z8 | z4 c4 | %24
w: |Do- mi\-|* nus te-|cum Do\-|* mi- nus|te\- *|cum,||||be-|
 c4 d4 | c4 B4- | B4 z2 B2 | B2 B2 (c2 d2- | d2 cB A2 G2) | A4 G4- | G8 | z2 G2 G2 G2 | G4 D4- | %33
w: ne- di-|cta tu|* in|mu- li- e\- *||ri- bus,||et be- ne-|di- ctus,|
 D4 z4 | z8 | z8 | z4 z2 B2 | B2 B2 B4 | A8 | c6 c2 | B2 (GA BcdB | c2) (d4 ^c2) | d2 (A3 G G2) | %43
w: |||et|be- ne- di-|ctus|fru- ctus|ven- tris * * * * *|* tu\- *|i, Je\- * *|
 A2 c4 A2 | B3 A G4 | A4 (B4 | c4) A4 | z2 A2 B2 B2 | (A2 d3 ^c c2) | d8 | z8 | z4 A4 | %52
w: sus, fru- ctus|ven- tris tu-|i, Je\-|* sus.|San- cta Ma-|ri\- * * *|a,||Re-|
 G2 A2 B2 c2- | c2 B2 c2 (d2- | d^c) c2 d2 c2 | d2 B2 c4 | A4 z2 A2 | A2 A2 (B2 d2- | %58
w: gi- na cae- li,|* Re- gi- na|* * cae- li. O|ma- ter De-|i, o-|ra pro- no\- *|
 d2) c2 B2 A2 | (F2 A3 G) (GF) | A4 d3 c | d2 B2 A4 | z2 A2 c2 c2 | c4 B4 | G4 G2 ^F2 | %65
w: * bis pec- ca-|to\- * * ri\- *|bus, pec- ca-|to- ri- bus,|ut cum e-|le- ctis|te vi- de-|
 (G3 A BcdB | cBAG A4) | G2 B2 B2 B2 | c2 c4 =B2 | (cG) _B2 A4 | G2 B2 B2 c2 | d4 c4 | F4 G2 G2 | %73
w: a\- * * * * *||mus, ut cum e|le- ctis te|vi\- * de- a-|mus, ut cum e-|le- ctis|te vi- de-|
 (B4 A4) | G4 z2 B2 | c2 G2 (c4- | c2 =BA) B4- | B16 |] %78
w: a\- *|mus, te|vi- de- a\-|* * * mus.||
V:4
 z8 | z8 | G,4 B,2 B,2 | A,4 G,4 | z2 G,,2 B,,2 B,,2 | A,,4 G,,4 | z2 C,2 E,2 E,2 | D,4 (C,3 D, | %8
w: ||A- ve Ma-|ri- a,|a- ve Ma-|ri- a,|a- ve Ma-|ri- a, *|
 E,F, G,4 ^F,2 | G,4 D,4) | z4 D,4 | ^F,2 G,2 E,4 | D,8 | z8 | D,4 E,2 C,2 | G,4 C,4 | z8 | %17
w: ||gra-|ti- a ple-|na,||Do- mi- nus|te- cum,||
 z4 D,4 | C,6 =B,,2 | C,4 G,,4- | G,,4 z4 | z4 G,4 | G,4 A,4 | G,4 F,4- | F,2 E,2 D,2 B,,2 | %25
w: Do-|mi- nus|te- cum,||be-|ne- di-|cta tu,|* be- ne- di-|
 F,4 G,4- | G,4 z2 G,2 | G,2 G,2 (F,E,D,C, | B,,2 C,2 D,2 E,2) | D,4 G,,2 C,2 | C,2 C,2 C,4 | %31
w: cta tu|* in|mu- li- e\- * * *||ri- bus, et|be- ne- di-|
 G,,8 | z8 | z8 | z8 | z8 | z4 G,4 | G,2 G,2 G,4 | F,2 (D,3 =E,F,D,) | (E,D,C,B,, A,,G,, A,,2) | %40
w: ctus,|||||et|be- ne- di-|ctus fru\- * * *|ctus * * * * * *|
 (G,,A,,B,,C, D,=E,F,G, | A,2 G,F,) =E,4 | (D,3 C, B,,4) | A,,2 A,4 F,2 | G,3 F, =E,4 | D,4 (G,4 | %46
w: ven\- * * * * * * *|* * * tris|tu\- * *|i, fru- ctus|ven- tris tu-|i, Je\-|
 C,4) D,4- | D,4 z2 D,2 | F,2 F,2 (=E,4 | D,2 G,,2) D,4 | z2 G,2 B,2 B,2 | A,4 D,2 D,2 | %52
w: * sus.|* San-|cta Ma- ri\-|* * a,|San- cta Ma-|ri- a, Re-|
 B,2 A,2 (G,2 C,2 | G,4) F,4 | A,4 B,2 A,2 | (G,4 C,4) | D,4 z2 D,2 | D,2 D,2 G,4 | E,4 D,4- | %59
w: gi- na cae\- *|* li.|O ma- ter|De\- *|i, o-|ra pro no-|bis pec\-|
 D,2 C,2 B,,2 B,,2 | A,,4 z4 | z4 A,,4 | A,,6 A,,2 | C,4 G,,4 | z2 G,,2 G,,2 D,2 | G,,2 G,,2 G,4 | %66
w: * ca- to- ri-|bus,|ut|cum e-|le- ctis,|te vi- de-|a- mus, te|
 C,2 E,2 D,4 | G,,2 G,2 G,2 G,2 | C,4 G,3 G, | C,2 B,,2 (C,2 D,2) | G,,2 G,2 G,2 _E,2 | %71
w: vi- de- a-|mus, ut cum e-|le- ctis te|vi- de- a\- *|mus, ut cum e-|
 F,2 G,2 C,2 F,2- | F,2 D,2 (E,4 | B,,3 C, D,4) | G,,4 G,4 | C,2 C,2 C,4 | G,,8- | G,,16 |] %78
w: le- ctis te vi\-|* de- a\-||mus, te|vi- de- a-|mus.||

